images/stars.svg

<svg width="16" height="16" viewBox="0 0 16 16" fill="none" xmlns="http://www.w3.org/2000/svg">
<path fill-rule="evenodd" clip-rule="evenodd" d="M16 6.20038C16 6.38185 15.875 6.55325 15.75 6.68431L12.2596 10.2533L13.0865 15.2943C13.0962 15.3648 13.0962 15.4253 13.0962 15.4959C13.0962 15.758 12.9808 16 12.7019 16C12.5673 16 12.4327 15.9496 12.3173 15.879L8 13.4997L3.68269 15.879C3.55769 15.9496 3.43269 16 3.29808 16C3.01923 16 2.89423 15.758 2.89423 15.4959C2.89423 15.4253 2.90385 15.3648 2.91346 15.2943L3.74038 10.2533L0.240385 6.68431C0.125 6.55325 0 6.38185 0 6.20038C0 5.89792 0.298077 5.77694 0.538462 5.73661L5.36538 5.00063L7.52885 0.413359C7.61538 0.221802 7.77885 0 8 0C8.22115 0 8.38462 0.221802 8.47115 0.413359L10.6346 5.00063L15.4615 5.73661C15.6923 5.77694 16 5.89792 16 6.20038Z" fill="#B4C2D3"/>
</svg>

<svg fill="none" height="16" width="16" xmlns="http://www.w3.org/2000/svg"><path clip-rule="evenodd" d="M16 6.2c0 .182-.125.353-.25.484l-3.49 3.57.826 5.04c.01.07.01.131.01.202 0 .262-.115.504-.394.504a.755.755 0 01-.385-.121L8 13.499l-4.317 2.38a.784.784 0 01-.385.121c-.279 0-.404-.242-.404-.504 0-.07.01-.131.02-.202l.826-5.04-3.5-3.57C.125 6.554 0 6.382 0 6.2c0-.302.298-.423.538-.463L5.365 5 7.53.413C7.615.222 7.779 0 8 0s.385.222.471.413l2.164 4.588 4.826.736c.231.04.539.16.539.463z" fill="#b4c2d3" fill-rule="evenodd"/></svg>
